data/sheikah/t.svg

<!-- Generated by IcoMoon.io -->
<svg version="1.1" xmlns="http://www.w3.org/2000/svg" width="1024" height="1024" viewBox="0 0 1024 1024">
<title></title>
<g id="icomoon-ignore">
</g>
<path d="M352.5 153.5h319v119.5h-319v-119.5zM870.5 751l-119.5 119.5h-478l-119.5-119.5h717zM153.5 273l119.5-119.5v398.5h79.5v-80l119.5-119.5h80l119.5 119.5v80h79.5v-398.5l119.5 119.5v279l-119.5 119.5h-79.5l-119.5-119.5v-80h-80v80l-119.5 119.5h-79.5l-119.5-119.5v-279z"></path>
</svg>

<svg xmlns="http://www.w3.org/2000/svg" width="1024" height="1024" viewBox="0 0 1024 1024">
  <title/>
  <path d="M352.5 153.5h319V273h-319zm518 597.5L751 870.5H273L153.5 751zm-717-478L273 153.5V552h79.5v-80L472 352.5h80L671.5 472v80H751V153.5L870.5 273v279L751 671.5h-79.5L552 552v-80h-80v80L352.5 671.5H273L153.5 552z"/>
</svg>
